X:1
T:Title
L:1/8
M:6/8
K:Eb
V:1 treble nm="Grand Piano"
V:1
 z2[Q:1/4=140] G G2 G | E2 G F2 E | D2 E D2 E | C6- | C2 C C2 C | c2 c c2 B | B2 A A2 G | F6- | %8
 F2 F G2 A | G2 E F2 G | F2 D E2 F | D6- | D2 D E2 D | C2 D E2 C | D2 E F2 D | G6 | G3 =A2 =B | %17
 c3- c2 c | c2 B B2 A | A2 G F3- | F2 F G2 A | G2 F G2 A | G2 F E2 D | G6 | G3 e2 d | c3- c2 c | %26
 c2 B B2 A | A2 G F3- | F2 F G2 A | d2 d d2 d | G2 G _G2 =G | c6- | c2 z z3 |] %33

